X: 13635
T: Folding Down The Sheets
R: reel
M: 4/4
K: Dmajor
ag|fedB ABcA|d2 F2 ABAF|GB G2 FAFD|A,2 C2 D2:|
z2|e2 ef gagf|eceg a2 a2|c2 ec B2 g2|fdec d2:|

